assets/img/icons/duotone-icons/Communication/Chat-error.svg

<?xml version="1.0" encoding="UTF-8"?>
<svg width="24px" height="24px" viewBox="0 0 24 24" version="1.1" xmlns="http://www.w3.org/2000/svg" xmlns:xlink="http://www.w3.org/1999/xlink">
    <!-- Generator: Sketch 52.2 (67145) - http://www.bohemiancoding.com/sketch -->
    <title>Stockholm-icons / Communication / Chat-error</title>
    <desc>Created with Sketch.</desc>
    <g id="Stockholm-icons-/-Communication-/-Chat-error" stroke="none" stroke-width="1" fill="none" fill-rule="evenodd">
        <rect id="bound" x="0" y="0" width="24" height="24"></rect>
        <path d="M2,11.8650466 L2,6 C2,4.34314575 3.34314575,3 5,3 L19,3 C20.6568542,3 22,4.34314575 22,6 L22,15 C22,15.0032706 21.9999948,15.0065399 21.9999843,15.009808 L22.0249378,15 L22.0249378,19.5857864 C22.0249378,20.1380712 21.5772226,20.5857864 21.0249378,20.5857864 C20.7597213,20.5857864 20.5053674,20.4804296 20.317831,20.2928932 L18.0249378,18 L12.9835977,18 C12.7263047,14.0909841 9.47412135,11 5.5,11 C4.23590829,11 3.04485894,11.3127315 2,11.8650466 Z M6,7 C5.44771525,7 5,7.44771525 5,8 C5,8.55228475 5.44771525,9 6,9 L15,9 C15.5522847,9 16,8.55228475 16,8 C16,7.44771525 15.5522847,7 15,7 L6,7 Z" id="Combined-Shape" fill="#335EEA"></path>
        <path d="M6,14 C6.55228475,14 7,14.4477153 7,15 L7,17 C7,17.5522847 6.55228475,18 6,18 C5.44771525,18 5,17.5522847 5,17 L5,15 C5,14.4477153 5.44771525,14 6,14 Z M6,21 C5.44771525,21 5,20.5522847 5,20 C5,19.4477153 5.44771525,19 6,19 C6.55228475,19 7,19.4477153 7,20 C7,20.5522847 6.55228475,21 6,21 Z" id="Combined-Shape" fill="#335EEA" opacity="0.3"></path>
    </g>
</svg>

<svg width="24" height="24" viewBox="0 0 24 24" xmlns="http://www.w3.org/2000/svg"><g fill="none" fill-rule="evenodd"><path d="M0 0h24v24H0z"/><path d="M2 11.865V6a3 3 0 013-3h14a3 3 0 013 3v9.01l.025-.01v4.586a1 1 0 01-1.707.707L18.025 18h-5.041A7.5 7.5 0 002 11.865zM6 7a1 1 0 100 2h9a1 1 0 000-2H6z" fill="#335EEA"/><path d="M6 14a1 1 0 011 1v2a1 1 0 01-2 0v-2a1 1 0 011-1zm0 7a1 1 0 110-2 1 1 0 010 2z" fill="#335EEA" opacity=".3"/></g></svg>
